build/images/icon/vk.svg

<svg width="41" height="40" viewBox="0 0 41 40" fill="none" xmlns="http://www.w3.org/2000/svg">
<path d="M37.1728 38.4667C34.1068 38.4593 31.0407 38.5254 27.9747 38.6391C24.9086 38.7455 21.8426 38.9217 18.7765 39.0574C17.2454 39.1198 15.7105 39.1932 14.1793 39.2299L11.8808 39.296L9.58217 39.3327C8.05105 39.351 6.51612 39.3437 4.985 39.3363L4.4113 39.3327H4.26693H4.19474L4.09216 39.329C3.95538 39.3217 3.82241 39.318 3.68563 39.2923C3.14613 39.2152 2.62942 39.0024 2.2001 38.6905C1.32625 38.0777 0.79815 37.0466 0.817146 36.0118C0.96152 30.0929 1.33385 24.174 1.39844 18.2515C1.43264 15.2902 1.42884 12.3289 1.37945 9.36763C1.35665 7.88883 1.32625 6.40636 1.28446 4.92755L1.26926 4.37346C1.26547 4.20467 1.25407 3.96982 1.28826 3.74598C1.34525 3.30197 1.50862 2.86163 1.77837 2.49102C2.29888 1.7351 3.22212 1.23972 4.19094 1.2177C7.25699 1.12597 10.323 1.00487 13.3891 0.935153C16.4551 0.858094 19.5212 0.821399 22.5872 0.777365L31.7854 0.667281C33.3165 0.645264 34.8514 0.645264 36.3826 0.645264H36.9563H37.1006H37.1728L37.2792 0.648933C37.4236 0.656272 37.568 0.659942 37.7085 0.685628C38.2784 0.766357 38.8331 0.979187 39.2966 1.30577C40.2313 1.94426 40.8316 3.04144 40.8164 4.16063L40.7708 8.60071C40.7556 10.0795 40.7442 11.562 40.6986 13.0408L40.6454 15.2608L40.5618 17.4809C40.5124 18.9597 40.425 20.4421 40.3529 21.9209C40.2085 24.8822 40.0261 27.8435 39.9121 30.8048C39.8399 32.2836 39.8172 33.7661 39.7716 35.2449C39.7488 35.6191 39.7792 35.9751 39.7184 36.3751C39.6538 36.7603 39.4942 37.1346 39.2511 37.4465C38.7723 38.085 37.9783 38.474 37.1728 38.4667ZM37.1728 38.2465C37.9061 38.2428 38.6204 37.8832 39.0345 37.3034C39.2473 37.0172 39.3764 36.6796 39.422 36.3384C39.4638 36.0044 39.4334 35.6155 39.4258 35.2522C39.3802 33.7734 39.3574 32.2909 39.2852 30.8121C39.1713 27.8508 38.9889 24.8896 38.8445 21.9283C38.7723 20.4495 38.6812 18.967 38.6356 17.4882L38.552 15.2682L38.4988 13.0481C38.457 11.5693 38.4418 10.0869 38.4266 8.60805L38.381 4.16797C38.3658 3.80469 38.191 3.44141 37.8681 3.22491C37.7123 3.11116 37.5338 3.04511 37.3476 3.01942C37.302 3.00841 37.2526 3.00841 37.207 3.00474L37.169 3.00107H37.0968H36.9525H36.3788C34.8476 3.00107 33.3127 3.00107 31.7816 2.97906L22.5834 2.86897C19.5174 2.82861 16.4513 2.78824 13.3853 2.71118C10.3192 2.64146 7.25319 2.52404 4.18714 2.42863C3.61724 2.40662 3.03215 2.65981 2.66741 3.1185C2.48125 3.34234 2.35587 3.61388 2.29888 3.9001C2.24949 4.15329 2.26089 4.57895 2.24569 4.93489C2.2001 6.4137 2.1697 7.89617 2.15071 9.37497C2.10132 12.3362 2.10132 15.2975 2.13171 18.2588C2.1963 24.1814 2.56863 30.1039 2.70921 36.0228C2.7244 36.4741 2.97136 36.8998 3.35509 37.1456C3.54126 37.2741 3.76162 37.3401 3.97818 37.3732C4.03137 37.3842 4.08836 37.3842 4.14535 37.3878L4.18714 37.3915H4.25933H4.4037L4.9774 37.3878C6.50853 37.3805 8.04345 37.3732 9.57458 37.3915L11.8732 37.4282L14.1718 37.4942C15.7029 37.5309 17.2378 37.6043 18.7689 37.6667C21.835 37.8025 24.901 37.9786 27.9671 38.085C31.0407 38.1878 34.1068 38.2575 37.1728 38.2465Z" fill="url(#paint0_linear)"/>
<path d="M5.26989 14.9306C6.09435 16.747 7.03658 18.5781 8.0776 20.3027C8.59431 21.1724 9.14901 22.02 9.73031 22.842C10.3116 23.6677 10.9233 24.4639 11.5882 25.2199C12.9103 26.7207 14.4187 28.0784 16.1664 28.9554C17.0364 29.3957 17.9673 29.6856 18.9171 29.7847C19.392 29.8287 19.8593 29.8324 20.4026 29.8287L21.9755 29.8324L21.7628 29.8654C21.816 29.8471 21.9414 29.792 22.0173 29.7443C22.1047 29.693 22.1769 29.6343 22.2339 29.5792C22.2909 29.5242 22.3289 29.4728 22.3441 29.4251C22.3555 29.4031 22.3631 29.3811 22.3669 29.359C22.3669 29.348 22.3707 29.337 22.3745 29.3224L22.3821 29.2233C22.4163 28.6875 22.4163 28.1151 22.4049 27.561V27.517C22.4049 27.4472 22.4201 27.3775 22.4467 27.3151C22.6138 26.9408 22.7848 26.6473 23.1001 26.339C23.2521 26.1923 23.4535 26.0455 23.7042 25.9538C23.9588 25.8583 24.2741 25.84 24.5325 25.9134C25.0568 26.0602 25.3342 26.3757 25.5773 26.6326L26.1814 27.3188C27.0021 28.2288 27.8607 29.1242 28.727 30.0012L28.8105 30.1113C28.7573 30.0232 28.7649 30.0452 28.746 30.0232C28.7422 30.0159 28.727 30.0085 28.727 30.0049C28.7156 29.9975 28.7156 29.9975 28.7118 29.9975C28.7118 29.9975 28.7194 30.0049 28.7346 30.0085C28.7612 30.0196 28.8029 30.0342 28.8485 30.0452C28.9397 30.0673 29.0499 30.0783 29.1601 30.0893C29.3766 30.104 29.6464 30.1076 29.8933 30.115L31.3941 30.159C32.3933 30.192 33.3963 30.203 34.3956 30.225L34.2512 30.2654C34.5209 30.0966 34.7945 29.8654 34.9693 29.6159C35.0528 29.4875 35.1098 29.3554 35.1326 29.2269C35.1478 29.0985 35.1136 28.9811 35.049 28.86C34.9996 28.8013 34.9731 28.7499 34.9123 28.6839L34.7261 28.4894L34.35 28.1041L33.6015 27.3261C32.5909 26.2987 31.5879 25.2602 30.5658 24.2438L30.562 24.2401C30.5506 24.2291 30.543 24.2181 30.5354 24.2071C30.3151 23.8621 30.1783 23.5099 30.1327 23.1025C30.0833 22.7099 30.2049 22.2402 30.4557 21.9246L31.6942 20.1926L34.1638 16.7213C34.3804 16.4167 34.5551 16.1819 34.6653 15.9103C34.7223 15.7819 34.7451 15.6535 34.7451 15.5764C34.7413 15.5617 34.7451 15.5397 34.7413 15.5287C34.7337 15.5214 34.7337 15.5177 34.7337 15.5104C34.7261 15.514 34.7261 15.5177 34.7299 15.5177C34.7337 15.5177 34.7185 15.5214 34.7223 15.5214C34.7299 15.5177 34.7109 15.514 34.6957 15.5104C34.6805 15.5067 34.6767 15.4994 34.6539 15.492C34.5969 15.4883 34.5589 15.47 34.4905 15.47L34.2854 15.4663L34.0118 15.4737L32.9214 15.4994C31.4701 15.5324 30.0187 15.5617 28.5636 15.5801L29.0841 15.3379C28.9663 15.4883 28.8371 15.6718 28.7308 15.8406C28.6776 15.9287 28.6244 16.0131 28.5826 16.0975L28.4192 16.4057L27.7391 17.6167C27.2794 18.4166 26.8159 19.2129 26.3296 20.0055C26.0864 20.4018 25.8395 20.7981 25.5697 21.1944C25.4253 21.3999 25.3114 21.5797 25.0872 21.8329L25.0416 21.8806L24.9656 21.9503L24.9238 21.9834C24.9048 21.998 24.9124 21.9944 24.8554 22.0311C24.7719 22.0861 24.6617 22.1301 24.5781 22.1558L24.4755 22.1925C24.3653 22.2329 24.2248 22.2806 24.0652 22.3173C23.8942 22.354 23.708 22.387 23.4611 22.365C23.2217 22.343 22.9254 22.2476 22.7202 22.0641C22.6024 21.9797 22.5416 21.8843 22.4619 21.7852C22.3973 21.6898 22.3555 21.6017 22.3061 21.5063C22.2377 21.3339 22.1883 21.1651 22.1655 21.0183C22.1313 20.8605 22.1275 20.7284 22.1161 20.5853L22.0971 20.2367L22.0667 19.5578C22.0211 18.6551 21.9831 17.7488 21.9489 16.8461L21.8996 15.4883L21.892 15.3195L21.8882 15.2351C21.8844 15.1948 21.8958 15.2902 21.892 15.2645C21.892 15.2682 21.892 15.2645 21.892 15.2608C21.8882 15.2351 21.8692 15.1874 21.8502 15.1544C21.8084 15.0884 21.7666 15.0407 21.6868 15.0003C21.607 14.9636 21.493 14.9269 21.3373 14.9232L20.6534 14.9196L19.2514 14.9086L16.4475 14.8865L16.7211 14.8352C16.6299 14.8682 16.4741 14.9563 16.4133 15.0076C16.3943 15.0223 16.3791 15.0333 16.3753 15.0407C16.3715 15.0443 16.3677 15.048 16.3639 15.048C16.3677 15.048 16.3715 15.0443 16.3715 15.0407C16.3715 15.0333 16.4133 14.9599 16.3981 14.8865C16.3905 14.8498 16.3981 14.8278 16.3753 14.8021C16.3601 14.7838 16.3753 14.7875 16.3677 14.7838C16.3525 14.7801 16.3791 14.7948 16.3905 14.8095C16.4095 14.8242 16.4057 14.8352 16.4361 14.8535C16.4931 14.8902 16.5311 14.9269 16.5995 14.9673L16.8085 15.0847L16.8882 15.1287C16.9262 15.1507 16.9604 15.1764 16.987 15.2021C17.2492 15.4553 17.4239 15.6755 17.5987 16.0021C17.6785 16.1635 17.7507 16.3507 17.7811 16.5782C17.7887 16.6369 17.7887 16.6956 17.7925 16.7543V16.8534V17.0369L17.7849 18.5047L17.7583 21.4439V21.4843C17.7583 21.5614 17.7393 21.6311 17.7051 21.6971C17.5759 21.9577 17.4467 22.1301 17.2454 22.332C17.0516 22.5191 16.7629 22.7173 16.3829 22.7613C16.2917 22.7686 16.1968 22.7686 16.1056 22.765C16.0182 22.7503 15.9346 22.7319 15.8472 22.7136C15.6953 22.6659 15.5433 22.5962 15.4331 22.5191C15.1975 22.365 15.0342 22.1925 14.8898 22.02L14.6884 21.7632L14.5251 21.5247C14.4149 21.3632 14.3123 21.2054 14.2097 21.044C14.0084 20.721 13.8146 20.3981 13.6208 20.0752C12.861 18.7762 12.1429 17.4699 11.44 16.1489L11.4324 16.1378C11.4172 16.1048 11.402 16.0718 11.3982 16.0388C11.364 15.848 11.2462 15.5948 11.0943 15.4296C10.9385 15.2572 10.7447 15.1251 10.5016 15.0627C10.38 15.0297 10.2546 15.015 10.1216 15.004L9.65432 14.9783L8.73488 14.9049C8.12699 14.8535 7.5191 14.8021 6.915 14.7801C6.61106 14.7691 6.31091 14.7581 6.01076 14.7691C5.86259 14.7765 5.71062 14.7838 5.57004 14.8095C5.50165 14.8242 5.42946 14.8388 5.37248 14.8645C5.32308 14.8719 5.27749 14.9342 5.26989 14.9306ZM5.11792 14.9416C5.14072 14.7875 5.2319 14.7508 5.30409 14.7031C5.38007 14.659 5.45986 14.637 5.53585 14.6113C5.69162 14.5673 5.84739 14.5416 5.99936 14.5196C6.31091 14.4756 6.61865 14.4535 6.9264 14.4425C7.54189 14.4168 8.15738 14.4205 8.76908 14.4205L9.68471 14.4168L10.133 14.4058C10.3078 14.4058 10.4826 14.4132 10.6611 14.4462C11.0221 14.5086 11.3716 14.6957 11.63 14.9563C11.8921 15.2278 12.0631 15.514 12.1657 15.8993L12.1239 15.7892C12.9027 17.0552 13.7006 18.3139 14.5327 19.5431C14.7416 19.8514 14.9506 20.1523 15.1633 20.4532L15.4863 20.8935L15.6497 21.11L15.8016 21.2861C15.9004 21.3962 16.0106 21.488 16.0942 21.5393C16.1816 21.5834 16.2272 21.5944 16.2272 21.5834C16.231 21.5797 16.2804 21.5614 16.3487 21.4843C16.4133 21.4219 16.4969 21.2825 16.5311 21.2091L16.4779 21.4623L16.3905 18.5157L16.3525 17.0405L16.3487 16.8571L16.3449 16.7727C16.3411 16.769 16.3411 16.769 16.3449 16.7653C16.3411 16.7506 16.3259 16.7029 16.2917 16.6442C16.2348 16.5341 16.0904 16.3654 15.9878 16.2773L16.1664 16.3947L15.8358 16.2259C15.7256 16.1672 15.6079 16.0791 15.4939 16.0057C15.4369 15.969 15.3723 15.903 15.3153 15.848C15.2545 15.7892 15.2013 15.7452 15.1368 15.6498C15.076 15.5617 15.019 15.492 14.9734 15.3783C14.9316 15.2572 14.886 15.1434 14.8784 15.0113C14.8746 14.8792 14.8746 14.7288 14.9164 14.615C14.9506 14.4902 15 14.3728 15.057 14.2921C15.0836 14.2481 15.114 14.2003 15.1444 14.16L15.2355 14.0572C15.2963 13.9838 15.3571 13.9325 15.4179 13.8848C15.6687 13.6829 15.87 13.5692 16.155 13.4518C16.2348 13.4187 16.3221 13.4004 16.4057 13.4004H16.4323L19.2818 13.3784L20.7066 13.3674C20.9535 13.3674 21.1663 13.3637 21.436 13.371C21.7514 13.3857 22.1047 13.4591 22.4467 13.6279C22.7886 13.7967 23.0925 14.0866 23.2749 14.4168C23.3699 14.582 23.4345 14.7508 23.4801 14.9489L23.4953 15.0297C23.4991 15.0333 23.5105 15.1581 23.5067 15.1434L23.5105 15.2278L23.5181 15.4003L23.5675 16.7727C23.6017 17.6864 23.6283 18.6001 23.6511 19.5175L23.67 20.2036L23.6814 20.5339C23.689 20.6183 23.6852 20.7137 23.7042 20.7798C23.7156 20.9302 23.7878 21.0219 23.727 20.9486C23.689 20.9265 23.6359 20.8972 23.6245 20.9082C23.6131 20.9119 23.6624 20.9082 23.7232 20.8972C23.7916 20.8825 23.8752 20.8568 23.9854 20.8201L24.0804 20.7908L24.2171 20.7541C24.1602 20.7651 24.0766 20.7944 24.0196 20.8385L23.9778 20.8678C23.974 20.8715 23.9664 20.8788 23.9664 20.8788L23.9816 20.8642C24.069 20.7761 24.2172 20.5779 24.3387 20.4055C24.5933 20.0459 24.8402 19.6679 25.0872 19.2863C25.5773 18.523 26.056 17.7451 26.5271 16.9635L27.2224 15.7892L27.3896 15.492C27.458 15.3746 27.5264 15.2645 27.5986 15.1581C27.7429 14.9416 27.8873 14.7544 28.0583 14.5453L28.0659 14.5379C28.195 14.3838 28.3888 14.3031 28.5788 14.3031C30.0301 14.3214 31.4815 14.3471 32.9366 14.3838L34.027 14.4095L34.3006 14.4168L34.6387 14.4462C34.7527 14.4572 34.8857 14.4976 35.0072 14.5306C35.0718 14.549 35.144 14.5893 35.2124 14.6223C35.2808 14.6554 35.3454 14.6884 35.4138 14.7544C35.4784 14.8132 35.5468 14.8682 35.5961 14.9416C35.6455 15.0186 35.6873 15.0957 35.7253 15.1764C35.7481 15.2535 35.7671 15.3342 35.7785 15.415C35.7899 15.492 35.7823 15.5581 35.7823 15.6315C35.7595 15.903 35.6797 16.1158 35.5885 16.3066C35.41 16.6846 35.1364 17.0075 34.9275 17.268L32.2793 20.6036L30.9572 22.2732C30.7558 22.5081 30.6798 22.765 30.7026 23.0695C30.7216 23.3631 30.8394 23.686 30.9914 23.9429L30.961 23.9062C31.9488 24.9593 32.9556 25.9941 33.9548 27.0363L34.7147 27.8105L35.0946 28.1958L35.2846 28.3903C35.3492 28.4563 35.4176 28.5554 35.4822 28.6362C35.5923 28.8306 35.6607 29.0618 35.6341 29.293C35.6037 29.5168 35.5126 29.715 35.4024 29.8875C35.1668 30.225 34.8895 30.4856 34.5513 30.7131C34.5133 30.7388 34.4677 30.7535 34.4259 30.7535H34.4108C33.4115 30.7718 32.4085 30.7828 31.4093 30.8195L29.9085 30.8635C29.654 30.8672 29.4222 30.8819 29.1373 30.8819C29.0005 30.8782 28.8561 30.8709 28.7042 30.8452C28.6244 30.8305 28.5484 30.8158 28.4572 30.7865C28.4116 30.7718 28.3622 30.7498 28.309 30.7241C28.2786 30.7094 28.252 30.6911 28.2178 30.6654C28.2026 30.6544 28.1799 30.636 28.1647 30.6177C28.1381 30.5847 28.1305 30.5957 28.0697 30.4966L28.1533 30.6067C27.2186 29.77 26.303 28.926 25.4101 28.0417C25.186 27.8215 24.9656 27.5977 24.7453 27.3702C24.5629 27.1904 24.3691 27.0509 24.2703 27.0473C24.2475 27.0473 24.2285 27.0363 24.2171 27.0473C24.2058 27.0436 24.1868 27.0583 24.1716 27.0619C24.1336 27.084 24.0728 27.1207 24.0082 27.1977C23.8828 27.3298 23.7346 27.5757 23.6624 27.7665L23.7004 27.5243C23.7346 28.1188 23.7536 28.6949 23.7346 29.304L23.7308 29.4178L23.708 29.5976C23.689 29.715 23.6549 29.8324 23.6093 29.9425C23.5181 30.1663 23.3775 30.3498 23.2293 30.5003C23.0812 30.6507 22.9178 30.7718 22.7506 30.8709C22.5758 30.9736 22.4353 31.047 22.2073 31.1277C22.1427 31.1498 22.0781 31.1608 22.0135 31.1608H21.9907L20.4064 31.1498C20.1367 31.1461 19.8973 31.1571 19.6086 31.1388C19.3236 31.1167 19.0387 31.1204 18.7575 31.08C17.6253 30.9443 16.5387 30.581 15.5623 30.0709C14.5783 29.5645 13.7044 28.9077 12.9065 28.1995C12.1125 27.4839 11.3868 26.7133 10.7295 25.895C9.42256 24.2548 8.34735 22.4787 7.41651 20.6477C6.50088 18.7946 5.71441 16.9305 5.11792 14.9416Z" fill="url(#paint1_linear)"/>
<defs>
<linearGradient id="paint0_linear" x1="0.626534" y1="19.9956" x2="40.7376" y2="19.9956" gradientUnits="userSpaceOnUse">
<stop stop-color="#AF0036"/>
<stop offset="1" stop-color="#D54E4E"/>
</linearGradient>
<linearGradient id="paint1_linear" x1="4.43389" y1="22.2512" x2="36.14" y2="22.2512" gradientUnits="userSpaceOnUse">
<stop stop-color="#BAF772"/>
<stop offset="1" stop-color="#047524"/>
</linearGradient>
</defs>
</svg>

<svg width="41" height="40" fill="none" xmlns="http://www.w3.org/2000/svg"><path d="M37.173 38.467a231.3 231.3 0 00-9.198.172c-3.066.106-6.132.283-9.199.418-1.53.063-3.066.136-4.597.173l-2.298.066-2.299.037c-1.531.018-3.066.01-4.597.003l-.574-.003h-.216l-.103-.004c-.137-.007-.27-.011-.406-.037A3.355 3.355 0 012.2 38.69c-.874-.612-1.402-1.643-1.383-2.678.145-5.92.517-11.838.581-17.76.035-2.962.03-5.923-.019-8.884a346.292 346.292 0 00-.095-4.44l-.015-.555c-.004-.168-.015-.403.02-.627a2.72 2.72 0 01.49-1.255c.52-.756 1.443-1.251 2.412-1.273 3.066-.092 6.132-.213 9.198-.283 3.066-.077 6.132-.114 9.198-.158l9.198-.11c1.531-.022 3.066-.022 4.598-.022h.79l.106.004c.145.007.289.01.43.037a3.67 3.67 0 011.588.62c.934.638 1.535 1.735 1.52 2.855L40.77 8.6c-.015 1.478-.027 2.961-.072 4.44l-.054 2.22-.083 2.22c-.05 1.479-.137 2.961-.21 4.44-.143 2.961-.326 5.922-.44 8.884-.072 1.479-.095 2.961-.14 4.44-.023.374.007.73-.054 1.13-.064.385-.224.76-.467 1.072a2.605 2.605 0 01-2.078 1.02zm0-.22c.733-.004 1.447-.364 1.861-.944.213-.286.342-.623.388-.965.042-.334.011-.723.004-1.086-.046-1.479-.069-2.961-.14-4.44-.115-2.961-.297-5.922-.442-8.884-.072-1.479-.163-2.961-.208-4.44l-.084-2.22-.053-2.22c-.042-1.479-.057-2.961-.072-4.44l-.046-4.44a1.192 1.192 0 00-.513-.943 1.139 1.139 0 00-.52-.206c-.046-.01-.095-.01-.141-.014L37.169 3h-.79c-1.531 0-3.066 0-4.597-.022l-9.199-.11c-3.066-.04-6.132-.08-9.198-.158-3.066-.07-6.132-.187-9.198-.282a1.875 1.875 0 00-1.52.69A1.762 1.762 0 002.3 3.9c-.05.253-.038.679-.053 1.035a247.223 247.223 0 00-.095 4.44c-.05 2.961-.05 5.922-.02 8.884.065 5.922.438 11.845.578 17.764.015.451.262.877.646 1.123.186.128.407.194.623.227.053.011.11.011.167.015l.042.004h.216l.573-.004c1.532-.008 3.066-.015 4.598.004l2.298.036 2.299.066c1.53.037 3.066.11 4.597.173 3.066.136 6.132.312 9.198.418 3.074.103 6.14.172 9.206.161z" fill="url(#paint0_linear)"/><path d="M5.27 14.93a52.283 52.283 0 002.808 5.373 38.19 38.19 0 001.652 2.539 27.92 27.92 0 001.858 2.378c1.322 1.5 2.83 2.858 4.578 3.735.87.44 1.801.73 2.751.83.475.044.942.047 1.486.044l1.573.003-.213.033c.053-.018.178-.073.254-.12.088-.052.16-.11.217-.166a.402.402 0 00.11-.154.227.227 0 00.023-.066c0-.011.004-.022.008-.037l.007-.099c.034-.535.034-1.108.023-1.662v-.044c0-.07.015-.14.042-.202.167-.374.338-.668.653-.976a1.73 1.73 0 01.604-.385 1.38 1.38 0 01.828-.04c.525.146.802.462 1.045.719l.604.686c.821.91 1.68 1.805 2.546 2.682l.084.11c-.054-.088-.046-.066-.065-.088-.004-.007-.019-.014-.019-.018-.011-.008-.011-.008-.015-.008a.797.797 0 00.137.048c.09.022.2.033.311.044.217.015.486.019.733.026l1.501.044c1 .033 2.002.044 3.002.066l-.145.04c.27-.168.544-.4.718-.65.084-.127.14-.26.164-.388a.609.609 0 00-.084-.367c-.05-.059-.076-.11-.137-.176l-.186-.195-.376-.385-.748-.778c-1.011-1.027-2.014-2.066-3.036-3.082l-.004-.004c-.011-.01-.019-.022-.027-.033a2.519 2.519 0 01-.402-1.105c-.05-.392.072-.862.323-1.177l1.238-1.732 2.47-3.472c.216-.304.391-.54.501-.81a.894.894 0 00.08-.335c-.004-.014 0-.036-.004-.047-.007-.008-.007-.011-.007-.019-.008.004-.008.008-.004.008s-.011.003-.008.003c.008-.003-.011-.007-.026-.01-.015-.004-.02-.012-.042-.019-.057-.004-.095-.022-.164-.022l-.205-.004-.273.008-1.09.025c-1.452.033-2.903.063-4.358.081l.52-.242c-.118.15-.247.334-.353.503-.053.088-.107.172-.148.257l-.164.308-.68 1.21c-.46.8-.923 1.597-1.41 2.39-.243.396-.49.792-.76 1.188-.144.206-.258.386-.482.639l-.045.048-.076.07-.042.032c-.02.015-.012.011-.069.048a1.155 1.155 0 01-.277.125l-.102.037c-.11.04-.251.088-.41.124-.172.037-.358.07-.605.048-.24-.022-.536-.117-.74-.3-.119-.085-.18-.18-.26-.28-.064-.095-.105-.183-.155-.279a2.34 2.34 0 01-.14-.488c-.035-.158-.038-.29-.05-.433l-.019-.348-.03-.68a215.62 215.62 0 01-.118-2.71l-.05-1.359-.007-.168-.004-.085c-.004-.04.008.055.004.03v-.004a.384.384 0 00-.205-.26.871.871 0 00-.35-.078l-.684-.003-1.402-.011-2.803-.023.273-.05a1.35 1.35 0 00-.308.172c-.019.014-.034.025-.038.033-.003.003-.007.007-.011.007.004 0 .008-.004.008-.007 0-.008.041-.081.026-.155-.008-.036 0-.058-.023-.084-.015-.018 0-.014-.007-.018-.015-.004.011.01.023.025.019.015.015.026.045.045.057.036.095.073.163.113l.21.118.08.044a.518.518 0 01.098.073c.262.253.437.473.612.8.08.162.152.349.182.576.008.059.008.118.012.176v.283l-.008 1.468-.027 2.939v.04a.454.454 0 01-.053.213c-.13.26-.258.433-.46.635a1.496 1.496 0 01-.862.43 2.354 2.354 0 01-.277.003c-.088-.015-.171-.033-.259-.051a1.58 1.58 0 01-.414-.195 2.418 2.418 0 01-.543-.499l-.202-.257-.163-.238c-.11-.162-.213-.32-.315-.481-.202-.323-.395-.646-.59-.969a111.289 111.289 0 01-2.18-3.926l-.008-.011a.341.341 0 01-.034-.1 1.344 1.344 0 00-.304-.608 1.187 1.187 0 00-.592-.367 2.103 2.103 0 00-.38-.059l-.468-.026-.92-.073c-.607-.051-1.215-.103-1.819-.125-.304-.01-.604-.022-.904-.01-.148.007-.3.014-.441.04-.068.014-.14.029-.198.054-.049.008-.095.07-.102.067zm-.152.012c.023-.155.114-.191.186-.239.076-.044.156-.066.232-.092.156-.044.311-.07.463-.091.312-.044.62-.066.927-.077.616-.026 1.231-.022 1.843-.022l.916-.004.448-.011c.175 0 .35.007.528.04.361.063.71.25.969.51.262.272.433.558.536.943l-.042-.11a102.454 102.454 0 002.409 3.754c.209.308.418.61.63.91l.323.44.164.217.152.176c.098.11.209.202.292.253.088.044.133.055.133.044.004-.003.053-.022.122-.099.064-.062.148-.202.182-.275l-.053.253-.088-2.946-.038-1.475-.003-.184-.004-.084c-.004-.004-.004-.004 0-.008a.527.527 0 00-.053-.12 1.546 1.546 0 00-.304-.368l.178.118-.33-.17c-.11-.058-.228-.146-.342-.22-.057-.036-.122-.102-.179-.157-.06-.059-.114-.103-.178-.198-.061-.088-.118-.158-.164-.272-.041-.12-.087-.235-.095-.367-.003-.132-.003-.282.038-.396.035-.125.084-.242.141-.323.027-.044.057-.092.087-.132l.091-.103a1.11 1.11 0 01.183-.172c.25-.202.452-.316.737-.433a.664.664 0 01.25-.052h.027l2.85-.022 1.425-.01c.246 0 .46-.004.729.003a2.56 2.56 0 011.01.257 1.965 1.965 0 011.034 1.32l.015.082a.748.748 0 01.012.113l.003.085.008.172.05 1.373c.034.913.06 1.827.083 2.744l.019.687.011.33c.008.084.004.18.023.246.012.15.084.242.023.169-.038-.023-.091-.052-.102-.04a.347.347 0 00.098-.012 2.33 2.33 0 00.262-.077l.095-.03.137-.036a.51.51 0 00-.197.084l-.042.03-.012.01.016-.014c.087-.088.235-.286.357-.459.254-.36.501-.737.748-1.119.49-.763.969-1.54 1.44-2.323l.695-1.174.168-.297a7.365 7.365 0 01.669-.947l.007-.007a.672.672 0 01.513-.235c1.451.018 2.902.044 4.358.08l1.09.027.274.007.338.03c.114.01.247.05.368.084.065.018.137.058.205.091a.706.706 0 01.202.132c.064.06.133.114.182.188.05.077.091.154.13.234.022.078.041.158.053.239.01.077.003.143.003.217a1.878 1.878 0 01-.193.675c-.179.378-.453.7-.661.961l-2.649 3.336-1.322 1.67a1.036 1.036 0 00-.254.796c.019.293.136.616.288.873l-.03-.037c.988 1.053 1.995 2.088 2.994 3.13l.76.774.38.386.19.194c.064.066.133.165.197.246.11.195.179.426.152.657-.03.224-.121.422-.232.595a3.144 3.144 0 01-.85.825.23.23 0 01-.126.04h-.015c-1 .019-2.003.03-3.002.067l-1.5.043c-.255.004-.487.019-.772.019a3.051 3.051 0 01-.433-.037 1.197 1.197 0 01-.395-.121.544.544 0 01-.144-.106c-.027-.033-.034-.022-.095-.121l.083.11a74.264 74.264 0 01-2.743-2.565c-.224-.22-.444-.444-.665-.672-.182-.18-.376-.32-.475-.323-.023 0-.041-.01-.053 0-.011-.003-.03.011-.045.015a.579.579 0 00-.164.136 1.958 1.958 0 00-.346.569l.038-.243c.035.595.054 1.17.035 1.78l-.004.114-.023.18a1.56 1.56 0 01-.099.345 1.733 1.733 0 01-.38.557c-.148.15-.311.272-.478.37a2.826 2.826 0 01-.544.258.595.595 0 01-.194.033h-.022l-1.585-.011c-.27-.004-.509.007-.797-.011-.285-.022-.57-.019-.852-.059a9.34 9.34 0 01-3.195-1.01c-.984-.506-1.858-1.162-2.655-1.87a19.75 19.75 0 01-2.178-2.305c-1.306-1.64-2.382-3.416-3.312-5.247-.916-1.853-1.703-3.718-2.3-5.706z" fill="url(#paint1_linear)"/><defs><linearGradient id="paint0_linear" x1=".627" y1="19.996" x2="40.738" y2="19.996" gradientUnits="userSpaceOnUse"><stop stop-color="#AF0036"/><stop offset="1" stop-color="#D54E4E"/></linearGradient><linearGradient id="paint1_linear" x1="4.434" y1="22.251" x2="36.14" y2="22.251" gradientUnits="userSpaceOnUse"><stop stop-color="#BAF772"/><stop offset="1" stop-color="#047524"/></linearGradient></defs></svg>
